!!!COM: Anonymous
!!!OTL@@POL: Chrystus zmartwychwstał jest
!!!TXO: Polish
!!!ODT: 
!!!GTL: Hymnbook L 1642
!!!ARL: Biblioteka Diecezjalna w Sandomierzu 
!!!voices:	4
**kern	**text	**kern	**text	**kern	**text	**kern	**text
*staff4	*staff4	*staff3	*staff3	*staff2	*staff2	*staff1	*staff1
*I"Basso	*	*I"Canto III	*	*I"Canto II	*	*I"Canto I	*
=1-	=1-	=1-	=1-	=1-	=1-	=1-	=1-
*clefF4	*	*clefG2	*	*clefG2	*	*clefG2	*
*k[b-]	*	*k[b-]	*	*k[b-]	*	*k[b-]	*
*met(c|)	*	*met(c|)	*	*met(c|)	*	*met(c|)	*
*M2/2	*	*M2/2	*	*M2/2	*	*M2/2	*
1r	.	1r	.	1r	.	2.dd\	Chry-
.	.	.	.	.	.	4cc\	-stus
=2	=2	=2	=2	=2	=2	=2	=2
1r	.	1r	.	1r	.	2dd\	zmar-
.	.	.	.	.	.	2ff\	-twych-
=3	=3	=3	=3	=3	=3	=3	=3
1r	.	1r	.	2.g/	Chry-	1gg	-wstał
.	.	.	.	4f/	-stus	.	.
=4	=4	=4	=4	=4	=4	=4	=4
1r	.	1r	.	2g/	zmar-	1dd	jest
.	.	.	.	2b-\	-twych-	.	.
=5	=5	=5	=5	=5	=5	=5	=5
1r	.	1r	.	4a/	-wstał	2dd\	nam
.	.	.	.	4b-\	.	.	.
.	.	.	.	2cc\	.	2ee\	na
=6	=6	=6	=6	=6	=6	=6	=6
1r	.	1r	.	1a	jest	2ff\	przy-
.	.	.	.	.	.	2dd\	-kład
=7	=7	=7	=7	=7	=7	=7	=7
2.GG/	Chry-	2.d/	Chry-	2.b-\	nam	2.b-\	dan
4FF/	-stus	4c/	-stus	4cc\	na	4a/	.
=8	=8	=8	=8	=8	=8	=8	=8
2GG/	zmar-	2d/	zmar-	2.b-\	przy-	4b-\	.
.	.	.	.	.	.	4cc\	.
2BB-/	-twych-	2f/	-twych-	.	.	2dd\	.
.	.	.	.	4a/	.	.	.
=9	=9	=9	=9	=9	=9	=9	=9
1C	-wstał	2.g/	-wstał	2g/	-kład	1cc	.
.	.	.	.	2cc\	dan	.	.
.	.	4a/	.	.	.	.	.
=10	=10	=10	=10	=10	=10	=10	=10
2GG/	jest	2d/	jest	2b-\	jest	2dd\	jest
2D\	nam	2f/	nam	2a/	nam	2dd\	nam
=11	=11	=11	=11	=11	=11	=11	=11
1G	na	2.g/	na	1b-	na	2.dd\	na
.	.	4e/	.	.	.	4ee\	.
=12	=12	=12	=12	=12	=12	=12	=12
2F\	przy-	2f/	przy-	2cc\	przy-	2ff\	przy-
2D\	-kład	2f/	-kład	[2dd\	-kład	2ff\	-kład
=13	=13	=13	=13	=13	=13	=13	=13
1AA	dan	1g	dan	4dd\]	.	1ee	dan
.	.	.	.	8cc#i\L	dan	.	.
.	.	.	.	8bni\J	.	.	.
.	.	.	.	2cc#\	.	.	.
=14	=14	=14	=14	=14	=14	=14	=14
2D\	jest	2a/	jest	2dd\	jest	2dd\	jest
2GG/	nam	2b-\	nam	2dd\	nam	2dd\	nam
=15	=15	=15	=15	=15	=15	=15	=15
1BB-	na	1b-	na	1dd	na	2.dd\	na
.	.	.	.	.	.	4ee\	.
=16	=16	=16	=16	=16	=16	=16	=16
2FF/	przy-	2a/	przy-	2cc\	przy-	4ff\	przy-
.	.	.	.	.	.	4dd\	.
2GG/	-kład	2g/	-kład	2b-\	-kład	[2gg\	-kład
=17	=17	=17	=17	=17	=17	=17	=17
1D	dan	1a	dan	1a	dan	4gg\]	.
.	.	.	.	.	.	8ff#i\L	dan
.	.	.	.	.	.	8ee\J	.
.	.	.	.	.	.	2ff#\	.
=18	=18	=18	=18	=18	=18	=18	=18
1GG	jest	1g	jest	1bn	jest	1gg	jest
=19	=19	=19	=19	=19	=19	=19	=19
2GG/	Iż	2g/	Iż	2b-\	Iż	2dd\	Iż
4GG/	ma-	4g/	ma-	4b-\	ma-	4dd\	ma-
4GG/	-my	4g/	-my	4b-\	-my	4dd\	-my
=20	=20	=20	=20	=20	=20	=20	=20
2D\	zmar-	2a/	zmar-	2dd\	zmar-	2ff\	zmar-
2D\	-twych-	2f/	-twych-	2b-\	-twych-	2ff\	-twych-
=21	=21	=21	=21	=21	=21	=21	=21
2.C/	-po-	[1g	-po-	1cc	-po-	2.ee\	-po-
4D\	.	.	.	.	.	4ff\	.
=22	=22	=22	=22	=22	=22	=22	=22
1E-	.	1g]	.	2.b-\	.	1gg	.
.	.	.	.	4cc\	.	.	.
=23	=23	=23	=23	=23	=23	=23	=23
1D	-wstać	1a	-wstać	1dd	-wstać	1ff#	-wstać
=24	=24	=24	=24	=24	=24	=24	=24
2D\	iż	2f#/	iż	2a/	iż	2dd\	iż
4D\	ma-	4f#/	ma-	4a/	ma-	4dd\	ma-
4D\	-my	4f#/	-my	4a/	-my	4dd\	-my
=25	=25	=25	=25	=25	=25	=25	=25
2C/	zmar-	2g/	zmar-	2cc\	zmar-	2ee-\	zmar-
2AA/	-twych	2a/	-twych	2cc\	-twych	2cc\	-twych-
=26	=26	=26	=26	=26	=26	=26	=26
4GG/	po-	2d/	po-	1b-	po-	1dd	-po-
4AA/	.	.	.	.	.	.	.
4BB-/	.	2g/	.	.	.	.	.
4C/	.	.	.	.	.	.	.
=27	=27	=27	=27	=27	=27	=27	=27
1D	-wstać	1f#	-wstać	1a	-wstać	1dd	-wstać
=28	=28	=28	=28	=28	=28	=28	=28
4.BB-/	z~Pa-	4.b-\	z~Pa-	4.dd\	z~Pa-	4.ff\	Z~Pa
8BB-/	-nem	8b-\	-nem	8dd\	-nem	8ff\	nem
4BB-/	Bo-	4b-\	Bo-	4dd\	Bo-	4ff\	Bo-
4FF/	-giem	4a/	-giem	4cc\	-giem	4ff\	-giem
=29	=29	=29	=29	=29	=29	=29	=29
4GG/	kr&oacute;-	4g/	kr&oacute;-	4b-\	kr&oacute;-	4dd\	kr&oacute;-
4D\	-lo-	4f#/	-lo-	4a/	-lo-	4dd\	-lo-
2GG/	-wać	2g/	-wać	2g/	-wać	2dd\	-wać
=30	=30	=30	=30	=30	=30	=30	=30
4.BB-/	z~Pa-	4.f/	z~Pa-	4b-\	z~Pa-	4.dd\	z~Pa-
.	.	.	.	4b-\	-nem	.	.
8BB-/	-nem	8f/	-nem	.	.	8dd\	-nem
4BB-/	Bo-	4f/	Bo-	4b-\	Bo-	4dd\	Bo-
4FF/	-giem	4f/	-giem	4a/	-giem	4cc\	-giem
=31	=31	=31	=31	=31	=31	=31	=31
4GG/	kr&oacute;-	4d/	kr&oacute;-	4g/	kr&oacute;-	4b-\	kr&oacute;-
4D\	-lo-	4d/	-lo-	4f#/	-lo-	4a/	-lo-
2GG/	-wać	2d/	-wać	2g/	-wać	2g/	-wać
=32	=32	=32	=32	=32	=32	=32	=32
4G\	kr&oacute;-	4b-\	kr&oacute;-	4dd\	kr&oacute;-	4gg\	kr&oacute;-
4D\	-lo-	4a/	-lo-	4dd\	-lo-	4ff#\	-lo-
2G\	-wać	2b-\	-wać	2dd\	-wać	2gg\	-wać
=33	=33	=33	=33	=33	=33	=33	=33
4GG/	kr&oacute;-	4g/	kr&oacute;-	4b-\	kr&oacute;-	4dd\	kr&oacute;-
4D\	-lo-	4f#i/	-lo-	4a/	-lo-	4dd\	-lo-
2GG/	-wać	2g/	-wać	2b-\	-wać	2dd\	-wać
=34	=34	=34	=34	=34	=34	=34	=34
4BB-/	kr&oacute;-	4b-\	kr&oacute;-	4dd\	kr&oacute;-	4ff\	kr&oacute;-
4F\	-lo-	4a/	-lo-	4cc\	-lo-	4ff\	-lo-
2BB-/	-wać	2b-\	-wać	2dd\	-wać	2ff\	-wać
=35	=35	=35	=35	=35	=35	=35	=35
4BB-/	kr&oacute;-	4b-\	kr&oacute;-	4b-\	kr&oacute;-	4dd\	kr&oacute;-
4FF/	-lo-	4a/	-lo-	4cc\	-lo-	4ff\	-lo-
2BB-/	-wać	2b-\	-wać	2dd\	-wać	2ff\	-wać
=36	=36	=36	=36	=36	=36	=36	=36
4D\	kr&oacute;-	4a/	kr&oacute;-	4dd\	kr&oacute;-	4dd\	kr&oacute;-
4AA/	-lo-	4a/	-lo-	4ee\	-lo-	4cc#\	-lo-
2D\	-wać	2a/	-wać	2dd\	-wać	2dd\	-wać
=37	=37	=37	=37	=37	=37	=37	=37
4D\	kr&oacute;-	4f/	kr&oacute;-	4dd\	kr&oacute;-	4dd\	kr&oacute;-
4A\	-lo-	4a/	-lo-	4cc#\	-lo-	4ee\	-lo-
2D\	-wać	2a/	-wać	2dd\	-wać	2dd\	-wać
=38	=38	=38	=38	=38	=38	=38	=38
4D\	z~Pa-	4a/	z~Pa-	4cc\	z~Pa-	4ff#\	z~Pa-
4D\	-nem	4a/	-nem	4cc\	-nem	4ff#\	-nem
4GG/	Bo-	4g/	Bo-	4dd\	Bo-	4gg\	Bo-
4GG/	-giem	4g/	-giem	4dd\	-giem	4gg\	-giem
=39	=39	=39	=39	=39	=39	=39	=39
4D\	kr&oacute;-	4d/	z~Pa-	4dd\	z~Pa-	4ff#i\	kr&oacute;-
4D\	-lo-	4d/	-nem	4dd\	-nem	4ff#\	-lo-
2GG/	-wać	4g/	Bo-	4dd\	Bo-	2gg\	-wać
.	.	4g/	-giem	4dd\	-giem	.	.
=40	=40	=40	=40	=40	=40	=40	=40
4D\	z~Pa-	4d/	kr&oacute;-	4dd\	kr&oacute;-	4ff#i\	z~Pa-
4D\	-nem	4d/	-lo-	4dd\	-lo-	4ff#\	-nem
4GG/	Bo-	2g/	-wać	2dd\	-wać	4gg\	Bo-
4GG/	-giem	.	.	.	.	4gg\	-giem
=41	=41	=41	=41	=41	=41	=41	=41
4D\	kr&oacute;-	4d/	z~Pa-	4dd\	z~Pa-	4ff#i\	kr&oacute;-
4D\	-lo-	4d/	-nem	4dd\	-nem	4ff#\	-lo-
2GG/	-wać	4g/	Bo-	4dd\	Bo-	2gg\	-wać
.	.	4g/	-giem	4b-\	-giem	.	.
=42	=42	=42	=42	=42	=42	=42	=42
4D\	z~Pa-	4d/	kr&oacute;-	4dd\	kr&oacute;-	4ff#\	z~Pa-
4D\	-nem	4d/	-lo-	4dd\	-lo-	4ff#\	-nem
4GG/	Bo-	2g/	-wać	2dd\	-wać	4gg\	Bo-
4GG/	-giem	.	.	.	.	4gg\	-giem
=43	=43	=43	=43	=43	=43	=43	=43
4D\	kr&oacute;-	4a/	kr&oacute;-	4dd\	kr&oacute;-	4ff#i\	kr&oacute;-
4D\	-lo-	4a/	-lo-	4dd\	-lo-	4ff#\	-lo-
2GG/	-wać	2g/	-wać	2dd\	-wać	2gg\	-wać
=44	=44	=44	=44	=44	=44	=44	=44
4G\	kr&oacute;-	4b-\	kr&oacute;-	4dd\	kr&oacute;-	4gg\	kr&oacute;-
4D\	-lo-	4a/	-lo-	4dd\	-lo-	4ff#\	-lo-
2G\	-wać	2b-\	-wać	2dd\	-wać	2gg\	-wać
=45	=45	=45	=45	=45	=45	=45	=45
4GG/	kr&oacute;-	4g/	kr&oacute;-	4b-\	kr&oacute;-	4dd\	kr&oacute;-
4D\	-lo-	4f#/	-lo-	4a/	-lo-	4dd\	-lo-
2GG/	-wać	2g/	-wać	2b-\	-wać	2dd\	-wać
=46	=46	=46	=46	=46	=46	=46	=46
4BB-/	kr&oacute;-	4b-\	kr&oacute;-	4dd\	kr&oacute;-	4ff\	kr&oacute;-
4F\	-lo-	4a/	-lo-	4cc\	-lo-	4ff\	-lo-
2BB-/	-wać	2b-\	-wać	2dd\	-wać	2ff\	-wać
=47	=47	=47	=47	=47	=47	=47	=47
4BB-/	kr&oacute;-	4b-\	kr&oacute;-	4b-\	kr&oacute;-	4dd\	kr&oacute;-
4F\	-lo-	4a/	-lo-	4cc\	-lo-	4ff\	-lo-
2BB-/	-wać	2b-\	-wać	2dd\	-wać	2ff\	-wać
=48	=48	=48	=48	=48	=48	=48	=48
4D\	kr&oacute;-	4a/	kr&oacute;-	4dd\	kr&oacute;-	4dd\	kr&oacute;-
4A\	-lo-	4a/	-lo-	4ee\	-lo-	4cc#\	-lo-
2D\	-wać	2a/	-wać	2dd\	-wać	2dd\	-wać
=49	=49	=49	=49	=49	=49	=49	=49
4D\	kr&oacute;-	4a/	kr&oacute;-	4dd\	kr&oacute;-	4dd\	kr&oacute;-
4AA/	-lo-	4a/	-lo-	4cc#\	-lo-	4ee\	-lo-
2D\	-wać	2a/	-wać	2dd\	-wać	2dd\	-wać
=50	=50	=50	=50	=50	=50	=50	=50
*M3/2	*	*M3/2	*	*M3/2	*	*M3/2	*
1BB-	z~Pa-	1b-	z~Pa-	1dd	z~Pa-	1dd	z~Pa-
2C/	-nem	2g/	-nem	2cc\	-nem	2ee\	-nem
=51	=51	=51	=51	=51	=51	=51	=51
1D	Bo-	2.f/	Bo-	1a	Bo-	1ff	Bo-
.	.	4g/	.	.	.	.	.
2D\	-giem	2a/	-giem	2dd\	-giem	2ff\	-giem
=52	=52	=52	=52	=52	=52	=52	=52
2BB-/	kr&oacute;-	2b-\	kr&oacute;-	2dd\	kr&oacute;-	2dd\	kr&oacute;-
1E-	-lo-	1g	-lo-	2.b-\	-lo-	1gg	-lo-
.	.	.	.	4cc\	.	.	.
=53	=53	=53	=53	=53	=53	=53	=53
1.D	-wać	1.a	-wać	1.dd	-wać	1.ff#	-wać
=54	=54	=54	=54	=54	=54	=54	=54
*met(c|)	*	*met(c|)	*	*met(c|)	*	*met(c|)	*
*M2/2	*	*M2/2	*	*M2/2	*	*M2/2	*
4AA/	z~Pa-	1r	.	1r	.	4ee\	z~Pa-
4AA/	-nem	.	.	.	.	4ee\	-nem
4D\	Bo-	.	.	.	.	4ff\	Bo-
4D\	-giem	.	.	.	.	4dd\	-giem
=55	=55	=55	=55	=55	=55	=55	=55
4AA/	kr&oacute;-	4a/	z~Pa-	4ee\	z~Pa-	4cc#\	kr&oacute;-
4AA/	-lo-	4a/	-nem	4ee\	-nem	4cc#\	-lo-
2D\	-wać	4d/	Bo-	4ff\	Bo-	2dd\	-wać
.	.	4d/	-giem	4dd\	-giem	.	.
=56	=56	=56	=56	=56	=56	=56	=56
4AA/	z~Pa-	4a/	kr&oacute;-	4cc#\	kr&oacute;-	4ee\	z~Pa-
4AA/	-nem	4a/	-lo-	4cc#\	-lo-	4ee\	-nem
4D\	Bo-	2d/	-wać	2dd\	-wać	4ff\	Bo-
4D\	-giem	.	.	.	.	4dd\	-giem
=57	=57	=57	=57	=57	=57	=57	=57
4AA/	kr&oacute;-	4a/	z~Pa-	4ee\	z~Pa-	4cc#\	kr&oacute;-
4AA/	-lo-	4a/	-nem	4ee\	-nem	4cc#\	-lo-
2D\	-wać	4d/	Bo-	4ff\	Bo-	2dd\	-wać
.	.	4d/	-giem	4dd\	-giem	.	.
=58	=58	=58	=58	=58	=58	=58	=58
4D\	kr&oacute;-	4a/	kr&oacute;-	4dd\	kr&oacute;-	4ff\	kr&oacute;-
4AA/	-lo-	4a/	-lo-	4cc#\	-lo-	4ee\	-lo-
2D\	-wać	2a/	-wać	2dd\	-wać	2dd\	-wać
=59	=59	=59	=59	=59	=59	=59	=59
*M3/2	*	*M3/2	*	*M3/2	*	*M3/2	*
1D	Al-	1f	Al-	1a	Al-	1dd	Al-
2G\	-le-	2g/	-le-	2b-\	-le-	4dd\	-le-
.	.	.	.	.	.	4ee\	.
=60	=60	=60	=60	=60	=60	=60	=60
1F	-lu-	1a	-lu-	1cc	-lu-	1ff	-lu-
2C/	-ja	2g/	-ja	2cc\	-ja	2ee\	-ja
=61	=61	=61	=61	=61	=61	=61	=61
2D\	al-	2f/	al-	2a/	al-	2dd\	al-
2GG/	-le-	2g/	-le-	2b-\	-le-	2dd\	-le-
2AA/	-lu-	2e/	-lu-	2a/	-lu-	2cc#\	-lu-
=62	=62	=62	=62	=62	=62	=62	=62
2D\	-ja	2f/	-ja	2a/	-ja	2dd\	-ja
2F\	al-	2a/	al-	2a/	al-	2ff\	al-
2C/	-le-	2g/	-le-	2cc\	-le-	2ee\	-le-
=63	=63	=63	=63	=63	=63	=63	=63
1D	-lu-	1f	-lu-	1a	-lu-	1dd	-lu-
2AA/	-ja	2e/	-ja	2cc#i\	-ja	2cc#i\	-ja
=64	=64	=64	=64	=64	=64	=64	=64
2BB-/	al-	2d/	al-	2b-\	al-	2dd\	al-
2GG/	-le-	2g/	-le-	2b-\	-le-	2dd\	-le-
2AA/	-lu-	2e/	-lu-	2a/	-lu-	2cc#\	-lu-
=65	=65	=65	=65	=65	=65	=65	=65
*met(c|)	*	*met(c|)	*	*met(c|)	*	*met(c|)	*
*M2/2	*	*M2/2	*	*M2/2	*	*M2/2	*
2D\	-ja	2f#/	-ja	2a/	-ja	2dd\	-ja
2GG/	al-	2g/	al-	2b-\	al-	2dd\	al-
=66	=66	=66	=66	=66	=66	=66	=66
1GG	-le-	[1g	-le-	1b-	-le-	1dd	-le-
=67	=67	=67	=67	=67	=67	=67	=67
1C	.	2g/]	.	1cc	-lu-	4ee\	.
.	.	.	.	.	.	4ff\	.
.	.	2g/	-lu-	.	.	[2gg\	.
=68	=68	=68	=68	=68	=68	=68	=68
4GG/	.	2g/	-ja	2dd\	-ja	2gg\]	.
4AA/	.	.	.	.	.	.	.
4BB-/	.	2g/	el-	[2dd\	al-	4ff#\	.
4C/	.	.	.	.	.	4ee\	.
=69	=69	=69	=69	=69	=69	=69	=69
[1D	.	[1a	-le-	2dd\]	.	[1ff#	.
.	.	.	.	2dd\	-le-	.	.
=70	=70	=70	=70	=70	=70	=70	=70
2D\]	.	2a/]	.	1dd	-lu-	2ff#\]	.
2D\	-lu-	2a/	-lu-	.	.	2ff#\	-lu-
=71	=71	=71	=71	=71	=71	=71	=71
[1GG	-ja.	[1bni	-ja.	[1dd	-ja.	[1gg	-ja.
=72	=72	=72	=72	=72	=72	=72	=72
1GG]	.	1b]	.	1dd]	.	1gg]	.
==	==	==	==	==	==	==	==
*-	*-	*-	*-	*-	*-	*-	*-
!!!GTL: Hymnbook L 1642
!!!EFL: 20/39
!!!YEM: Creative Commons CC/BY/NC/SA 4.0
!!!ENC: Marcin Konik
!!!END: 2015-02-19 
!!!EED: Marcin Konik
!!!EEV: 
!!!ONB: Translated from MusicXML and edited by Marcin Konik
!!!CharacterEncoding: utf-8
!!!RDF**kern: i=editorial accidental
!!muse2ps: z14jc180F
!!title: @{OTL}, @{GTL}: @{pag}, ed. @{ENC}
